X: 128
T:Sunset, The
M:C|
L:1/8
C:Cathal McConnell & Seamus Quinn.
R:reel
D:Altan: Altan
Z:Tom Keays
K:D
ed||cF~F2 Bcdc|BG (3Bcd deed|=cdeg d2Ad|dfed ^cded|
cF~F2 Bcdc|BG (3Bcd deed|=cdeg fde^c|1 dfec d2ed:|2 dfec d2ag||
|:fdfg a2gf|e=cef g3a|fg (3agf gfe^c|dfed ^cded|
cF~F2 Bcdc|BG (3Bcd deed|=cdeg fde^c|1 dfec d2ag:|2 dfec d2||
